X: 1
T: Gothenburg's Welcome
T: 8x32J 3C (Bobby Munro, RSCDS Bk 37)
T: 1C, pass CPCP, M chg pl, W chg pl; M ch pl, W ch pl, rpt; 1/2 R4, 1/2 R4, RHacr
P: Wha' Can Help It
C: Niel Gow colln., arr Terry Traub, 2-22-2013
M: 6/8
L: 1/8
R: Jig
K: A
|: E|"A"A,CE ECE|"D"FEF A2 B|"A"c2 A "D"d2 c|"E"BB,B, B,2 C|"A"A,CE ECE|"D"FEF A2 B|"A"c2 A "E7"d2 B|"A"cAA A2 :|
c|"A"efe ece |"D"agf "A"ecA|"D"d/e/fd "A"ecA|"E"GBB B2 c|"A"efe ece|"D"agf "A"ecA|"Bm"dcd "E"Bed|"A"cAA A2 c||
"A"efe ece|"D"agf "A"ecA|"D"d/e/fd "A"ecA|"E"GBB B2 C|"A"A,CE ECE|"D"FEF A2 B|"A"c2 A "E"d2 B|"A"cAA A2 |]

